X:411
T:Akeroyde's Pad. (p).1701.PLFD.411
M:4/4
L:1/8
Q:1/2=60
S:Playford, Dancing Master,11th Ed.,1701.
O:England
Z:Chris Partington.
K:C
cBcG cedG|Bdfd ecge|dfaf ecge|dc/B/ ec dBec|
dc/B/ ec dBec|dc/B/ A>GG4:||:dzdzdzdz|ezezezez|
aAce aAcd|ed/c/ B>AA3d|dGBd dGBd|gceg gceg|fzfzfzfz|
(3ece (3gdf (3ece (3gdf|(3ece (3gfe dzdz|dzdz (3efe (3ded|\
(3efe (3ded (3efe (3dgG|
czczczcz|(3efe (3ded (3efe (3ded|ezezezez|d3e/f/d3c|c8:|
